src/assets/icons/Medium.svg

<svg width="30" height="30" viewBox="0 0 48 48" fill="none" xmlns="http://www.w3.org/2000/svg">
<path fill-rule="evenodd" clip-rule="evenodd" d="M48 24C48 37.2548 37.2548 48 24 48C10.7452 48 0 37.2548 0 24C0 10.7452 10.7452 0 24 0C37.2548 0 48 10.7452 48 24ZM11.3912 15.234C11.6845 15.5046 11.8343 15.9019 11.7946 16.3039V30.779C11.8816 31.3011 11.7208 31.8345 11.3613 32.2158L8 36.3886V36.9389H17.5313V36.3886L14.1699 32.2158C13.8079 31.8351 13.6371 31.3053 13.7068 30.779V18.2604L22.0728 36.9389H23.0439L30.2297 18.2604V33.1481C30.2297 33.5456 30.2297 33.622 29.9757 33.8818L27.3912 36.4497V37H39.9402V36.4497L37.4454 33.943C37.2251 33.7712 37.1159 33.4888 37.1615 33.2093V14.7907C37.1159 14.5112 37.2251 14.2288 37.4454 14.057L40 11.5503V11H31.1559L24.8515 27.0952L17.6807 11H8.40336V11.5503L11.3912 15.234Z" fill="currentColor"/>
</svg>

<svg width="30" height="30" viewBox="0 0 48 48" fill="none" xmlns="http://www.w3.org/2000/svg"><path fill-rule="evenodd" clip-rule="evenodd" d="M48 24c0 13.255-10.745 24-24 24S0 37.255 0 24 10.745 0 24 0s24 10.745 24 24zm-36.609-8.766c.293.27.443.668.404 1.07v14.475a1.691 1.691 0 0 1-.434 1.437L8 36.389v.55h9.531v-.55l-3.361-4.173a1.753 1.753 0 0 1-.463-1.437V18.26l8.366 18.679h.97L30.23 18.26v14.888c0 .398 0 .474-.254.734L27.39 36.45V37h12.55v-.55l-2.496-2.507a.773.773 0 0 1-.284-.734V14.791a.773.773 0 0 1 .284-.734L40 11.55V11h-8.844l-6.304 16.095L17.68 11H8.403v.55l2.988 3.684z" fill="currentColor"/></svg>
